!!!COM:	Martini, Johannes
!!!CDT:	~1440///-~1497//
!!!OPR:	Missa Dio te salvi Gotterello
!!!ONM:	4
!!!OTL:	Sanctus
!!!AGN:	Mass; Sanctus
!!!SCT:	Mar1004d
!!!SCA:	Mar1004d
!!!voices:	4
!!!voices-OPR:	4
**kern	**kern	**kern	**kern
*staff4	*staff3	*staff2	*staff1
*Ivox	*Ivox	*Ivox	*Ivox
*I"Bassus	*I"Tenor	*I"Contra	*I"Superius
*I'B	*I'T	*I'C	*I'S
*>[A,B,C,D,C]	*>[A,B,C,D,C]	*>[A,B,C,D,C]	*>[A,B,C,D,C]
*>A	*>A	*>A	*>A
*clefF4	*clefGv2	*clefGv2	*clefG2
*k[]	*k[]	*k[]	*k[]
*M2/1	*M2/1	*M2/1	*M2/1
*met(C)	*met(C)	*met(C)	*met(C)
=1-	=1-	=1-	=1-
!!section: Sanctus
!!!OMD: Sanctus
1A	0r	0r	0r
2G\	.	.	.
2E\	.	.	.
=2	=2	=2	=2
1F	0r	0r	1a
1E	.	.	2g/
.	.	.	2e/
=3	=3	=3	=3
2r	1A	0r	1f
2D\	.	.	.
2E\	2G/	.	1e
2C/	2E/	.	.
=4	=4	=4	=4
2D\	1F	0r	2r
4E\	.	.	2d/
4F\	.	.	.
2G\	2E/	.	2e/
2F\	2D/	.	2f/
=5	=5	=5	=5
2E\	2E/	0r	2g/
4D\	2F/	.	4f/
4C/	.	.	4e/
1BB	1G	.	1d
=6	=6	=6	=6
2AA/	2A/	0r	2c/
1D	4G/	.	2d/
.	4F/	.	.
.	1E	.	2e/
2C/	.	.	2g/
=7	=7	=7	=7
1D	1D	0r	1f
2C/	1r	.	2e/
[2F\	.	.	[2a/
=8	=8	=8	=8
2F\]	2r	0r	2a/]
2E\	2G/	.	2g/
2D\	2F/	.	1a
2C/	2A/	.	.
=9	=9	=9	=9
4D\	4B\	0r	0d
4C/	4A/	.	.
4BB/	4G/	.	.
4AA/	4F/	.	.
1BB	1G	.	.
=10	=10	=10	=10
1AA	1A	0r	2r
.	.	.	2c/
2GG/	2B\	.	2d/
2D\	2A/	.	2f/
=11	=11	=11	=11
2E\	2.G/	0r	2e/
2C/	.	.	2g/
.	4F/	.	.
1D	2D/	.	2f/
.	2F/	.	4e/
.	.	.	4d/
=12	=12	=12	=12
2AA/	2E/	0r	2c/
2BB/	2D/	.	1d
1AA	1E	.	.
.	.	.	2c#i/
=13	=13	=13	=13
1A	1D	2r	1d
.	.	1d	.
1r	1r	.	1r
.	.	2c\	.
=14	=14	=14	=14
1D	0r	2A/	0r
.	.	1B	.
2C/	.	.	.
2AA/	.	[2A/	.
=15	=15	=15	=15
1BB	2r	2A/]	0r
.	1d	2G/	.
2.AA/	.	2A/	.
.	2c\	4G/	.
4BB/	.	4F/	.
=16	=16	=16	=16
2C/	2A/	2E/	0r
1D	1B	1F	.
2C/	[2A/	[2E/	.
=17	=17	=17	=17
1BB	2A/]	2E/]	1dd
.	2G#i/	2D/	.
1AA	2.A/	1E	2cc\
.	.	.	[2a/
.	4B\	.	.
=18	=18	=18	=18
2A\	2c\	0r	2a/]
1G	1d	.	1b
2A\	2c\	.	[2a/
=19	=19	=19	=19
1E	1B	0e	2a/]
.	.	.	2g#i/
1AA	1A	.	1a
=20	=20	=20	=20
*M3/1	*M3/1	*M3/1	*M3/1
*met(3)	*met(3)	*met(3)	*met(3)
!!primary-mensuration: met(C.)
!! menCDot tempo
0.r	1A	1c	0.r
.	2A/	2d\	.
.	1G	2.e\	.
.	.	4f\	.
.	2E/	2g\	.
=21	=21	=21	=21
0.r	1F	2f\	1a
.	.	1d	.
.	2F/	.	2a/
.	1.E	2.e\	1g
.	.	4d\	.
.	.	2B\	2e/
=22	=22	=22	=22
1D	1r	1A	1f
2D\	2r	2F/	2f/
1C	1E	1G	1e
2AA/	[2F/	2A/	2c/
=23	=23	=23	=23
1BB-	2F/]	1.D	1d
.	1G	.	.
2BB-i/	.	.	2B/
2.AA/	1A	1.E	2.c/
4BB-i/	.	.	4d/
2C/	2r	.	2e/
=24	=24	=24	=24
2D\	1A	1F	2d/
2AA/	.	.	2.f/
1C	2G/	2G/	.
.	.	.	4e/
.	2E/	1A	1e
1D	1F	.	.
.	.	2B\	2d/
=25	=25	=25	=25
*M2/1	*M2/1	*M2/1	*M2/1
*met(C)	*met(C)	*met(C)	*met(C)
2AA/	1E	2.c\	1e
2C/	.	.	.
.	.	4e\	.
2BB/	2G/	2d\	2r
2AA/	[2A/	2c\	2e/
=26	=26	=26	=26
1D	2A/]	2d\	2f/
.	2F/	2A/	1a
1G	1E	2B\	.
.	.	2c\	2g/
=27	=27	=27	=27
2r	1D	2d\	2f/
2F\	.	1d	2d/
2G\	1r	.	1e
2A\	.	2c#i\	.
=28	=28	=28	=28
1.D	1D	1d	2d/
.	.	.	2.f/
.	2F/	1r	.
.	.	.	4e/
2C/	2E/	.	[2g/
=29	=29	=29	=29
1BB	1G	1d	4g/]
.	.	.	4f/
.	.	.	4e/
.	.	.	4d/
1AA	1A	2e\	2.c/
.	.	4d\	.
.	.	4c\	4d/
=30	=30	=30	=30
2r	2G/	2B\	2e/
1D	2A/	2A/	1f
.	2F/	2B\	.
[2C/	[2G/	[2c\	[2e/
=31	=31	=31	=31
2C/]	2G/]	4c\]	2e/]
.	.	4B\	.
2D\	2F/	2.A/	1d
1AA	1E	.	.
.	.	4G/	.
.	.	2E/	2c#i/
=32	=32	=32	=32
0Dl	0Dl	0Fl	0dl
!!LO:LB:i:g=z
=33||	=33||	=33||	=33||
*>B	*>B	*>B	*>B
*clefF4	*clefGv2	*clefGv2	*clefG2
*k[]	*k[]	*k[]	*k[]
*M2/1	*M2/1	*M2/1	*M2/1
*met(C)	*met(C)	*met(C)	*met(C)
!!section: Pleni sunt celi
!!!OMD: Pleni sunt celi
0r	1A	0r	0r
.	2G/	.	.
.	[2A/	.	.
=34	=34	=34	=34
0r	4A/]	0r	1a
.	4G/	.	.
.	2F/	.	.
.	2E/	.	2g/
.	2F/	.	[2a/
=35	=35	=35	=35
0r	1D	0r	4a/]
.	.	.	4g/
.	.	.	2f/
.	2C/	.	2e/
.	2D/	.	2f/
=36	=36	=36	=36
0r	2F/	0r	1d
.	2G/	.	.
.	2E/	.	2c/
.	2D/	.	2d/
=37	=37	=37	=37
0r	2d\	0r	2f/
.	2B\	.	2g/
.	2c\	.	2e/
.	[2d\	.	2d/
=38	=38	=38	=38
0r	4d\]	0r	2a/
.	4c\	.	.
.	2A/	.	2f/
.	2B\	.	2g/
.	2c\	.	[2a/
=39	=39	=39	=39
0r	2A/	0r	4a/]
.	.	.	4g/
.	1d	.	2f/
.	.	.	1e
.	2c#i\	.	.
=40	=40	=40	=40
0r	1d	0r	2d/
.	.	.	2r
.	2.A/	.	2f/
.	.	.	2e/
.	4G/	.	.
=41	=41	=41	=41
0r	2F/	0r	2d/
.	2E/	.	2g/
.	2D/	.	2f/
.	2G/	.	2e/
=42	=42	=42	=42
0r	2F/	0r	2a/
.	2E/	.	2g/
.	2A/	.	2f/
.	2G/	.	[2b-i\
=43	=43	=43	=43
0r	1c	0r	2b-\]
.	.	.	1a
.	1B-i	.	.
.	.	.	2g/
=44	=44	=44	=44
0r	1Al	2r	[0a
.	.	2A/	.
.	1r	2d\	.
.	.	2c\	.
=45	=45	=45	=45
2r	0r	2d\	0a_
2AA/	.	4c\	.
.	.	4B\	.
2D\	.	2A/	.
2C/	.	2r	.
=46	=46	=46	=46
2.D\	0r	2A/	0a_
.	.	2d\	.
8C/L	.	.	.
8BB/J	.	.	.
2AA/	.	2c\	.
2D\	.	2d\	.
=47	=47	=47	=47
2C/	0r	2e\	0a]
2D\	.	2.f\	.
1F	.	.	.
.	.	4e\	.
.	.	[2d\	.
=48	=48	=48	=48
1E	0r	2d\]	0r
.	.	2c#i\	.
2D\	.	[1d	.
[2F\	.	.	.
=49	=49	=49	=49
4F\]	0r	2d\]	0r
4E\	.	.	.
4D\	.	1f	.
4C/	.	.	.
2D\	.	.	.
2C/	.	[2e\	.
=50	=50	=50	=50
2AA/	0r	4e\]	0r
.	.	4d\	.
2A\	.	2c\	.
2G\	.	1B	.
2E\	.	.	.
=51	=51	=51	=51
2F\	0r	1A	0r
4E\	.	.	.
4D\	.	.	.
1C	.	2r	.
.	.	2e\	.
=52	=52	=52	=52
2D\	0r	2d\	0r
2.E\	.	2B\	.
.	.	2c\	.
4F\	.	.	.
[2G\	.	4B\	.
.	.	4A/	.
=53	=53	=53	=53
4G\]	0r	2G/	0r
4E\	.	.	.
2F\	.	2A/	.
2E\	.	2c\	.
[2D\	.	[2B\	.
=54	=54	=54	=54
2D\]	0r	2B\]	0r
2C/	.	1A	.
1BB	.	.	.
.	.	2G#i/	.
=55	=55	=55	=55
1AA	0r	0A	2r
.	.	.	2A/
2r	.	.	2.c/
2AA/	.	.	.
.	.	.	4d/
=56	=56	=56	=56
2C/	0r	2r	2e/
2D\	.	2d\	2f/
2E\	.	2c\	2g/
2F\	.	2A/	[2a/
=57	=57	=57	=57
1E	0r	1B	2a/]
.	.	.	2g#i/
2AA/	.	1A	2a/
[2D\	.	.	[2f/
=58	=58	=58	=58
4D\]	0r	2d\	4f/]
4E\	.	.	4g/
2F\	.	2c\	2a/
2G\	.	2B\	2d/
2A\	.	[2e\	2c/
=59	=59	=59	=59
1B	0r	2e\]	1d
.	.	1d	.
1A	.	.	1e
.	.	2c#i\	.
=60	=60	=60	=60
0Dl	0r	0dl	0dl
!!LO:LB:i:g=z
=61||	=61||	=61||	=61||
*>C	*>C	*>C	*>C
*clefF4	*clefGv2	*clefGv2	*clefG2
*k[]	*k[]	*k[]	*k[]
*M3/1	*M3/1	*M3/1	*M3/1
*met(C|3)	*met(C|3)	*met(C|3)	*met(C|3)
!!section: Osanna
!!!OMD: Osanna
0D	0.r	0d	0.r
[1F	.	1d	.
=62	=62	=62	=62
1F]	0.r	0c	0.r
0E	.	.	.
.	.	1c	.
=63	=63	=63	=63
0D	0.r	1.d	0.r
.	.	2c\	.
1D	.	1B	.
=64	=64	=64	=64
0C	0.r	1A	0.r
.	.	1.c	.
1C	.	.	.
.	.	2B\	.
=65	=65	=65	=65
1.D	0d	1.A	0f
2C/	.	2F/	.
1BB	1d	1G	1d
=66	=66	=66	=66
0.AA	0c	1.A	0e
.	.	2G/	.
.	1c	1E	1e
=67	=67	=67	=67
0D	1.d	1D	1.f
.	.	1F	.
.	2c\	.	2e/
1GG	1B	1G	1d
=68	=68	=68	=68
1AA	0A	0E	0c
1C	.	.	.
1D	1r	1F	1r
=69	=69	=69	=69
1E	0.r	1G	0.r
1F	.	1A	.
1G	.	1B	.
=70	=70	=70	=70
0A	0.r	1c	0.r
.	.	1.e	.
1G	.	.	.
.	.	2d\	.
=71	=71	=71	=71
1F	0.r	0d	0.r
0E	.	.	.
.	.	1c#i	.
=72	=72	=72	=72
0D	0d	1.d	1.f
.	.	2c\	2g/
1D	1d	1A	1a
=73	=73	=73	=73
0D	0d	1.B-i	1f
.	.	.	1.b-i
.	.	2A/	.
1A	1c	[1F	.
.	.	.	2a/
=74	=74	=74	=74
1F	1A	1F]	0a
0E	0B	0G	.
.	.	.	1g
=75	=75	=75	=75
0AA	1A	1E	0a
.	1c	1F	.
1E	1B	1G	1g
=76	=76	=76	=76
1F	1A	1A	1.f
0C	0G	0c	.
.	.	.	4e/
.	.	.	4d/
.	.	.	1e
=77	=77	=77	=77
0D	0F	0A	0f
1E	1r	1G	1g
=78	=78	=78	=78
1.F	1r	1.c	1.a
.	1r	.	.
2C/	.	2A/	2g/
1D	1F	1B	1f
=79	=79	=79	=79
1.C	0G	1c	1.e
.	.	1r	.
2D\	.	.	2f/
1E	1G	1c	1g
=80	=80	=80	=80
1D	1.A	0d	1.f
1.F	.	.	.
.	2G/	.	2g/
.	1F	1d	1a
2E\	.	.	.
=81	=81	=81	=81
0C	0E	1.e	0g
.	.	2d\	.
1D	1F	1c	1f
=82	=82	=82	=82
0GG	1.G	0B	0d
.	2F/	.	.
1G	1E	1c	1r
=83	=83	=83	=83
1A	0D	1.d	0a
1F	.	.	.
.	.	2c\	.
1G	1r	1B	1g
=84	=84	=84	=84
0D	0A	1A	1.f
.	.	1F	.
.	.	.	2e/
1GG	1B	1G	1d
=85	=85	=85	=85
1AA	1A	0E	1c
0C	0G	.	1.e
.	.	1c	.
.	.	.	2d/
=86	=86	=86	=86
1D	1F	1B	1.d
0AA	0E	0A	.
.	.	.	4c#i/
.	.	.	4B/
.	.	.	1c#i
=87	=87	=87	=87
0.Dl	0.Dl	0.Al	0.dl
!!LO:LB:i:g=z
!!LO:TX:rj:i:Y=30:t=fine
=88||	=88||	=88||	=88||
*>D	*>D	*>D	*>D
*clefF4	*clefGv2	*clefGv2	*clefG2
*k[]	*k[]	*k[]	*k[]
*M2/1	*M2/1	*M2/1	*M2/1
*met(C|)	*met(C|)	*met(C|)	*met(C|)
!!section: Benedictus
!!!OMD: Benedictus
0r	0r	0r	[0d
=89	=89	=89	=89
0r	0r	0r	1d]
.	.	.	1e
=90	=90	=90	=90
[0D	0r	0r	1.f
.	.	.	2e/
=91	=91	=91	=91
1D]	0r	0r	1d
1E	.	.	1c
=92	=92	=92	=92
1.F	0r	0r	1d
.	.	.	1A
[2D\	.	.	.
=93	=93	=93	=93
2D\]	0r	0r	1r
2C/	.	.	.
2D\	.	.	1d
2BB/	.	.	.
=94	=94	=94	=94
1AA	0r	0r	1e
1r	.	.	2f/
.	.	.	[2a/
=95	=95	=95	=95
1D	0r	0r	2a/]
.	.	.	4g/
.	.	.	4f/
1E	.	.	4g/
.	.	.	4f/
.	.	.	4e/
.	.	.	4d/
=96	=96	=96	=96
2F\	0r	0r	1c
1A	.	.	.
.	.	.	1f
4G\	.	.	.
4F\	.	.	.
=97	=97	=97	=97
4G\	0r	0r	0e
4F\	.	.	.
4E\	.	.	.
4D\	.	.	.
1C	.	.	.
=98	=98	=98	=98
1D	0r	0r	1d
1F	.	.	[1a
=99	=99	=99	=99
0E	0r	0r	1a]
.	.	.	1g
=100	=100	=100	=100
1D	0r	0r	1.f
[1A	.	.	.
.	.	.	4e/
.	.	.	4d/
=101	=101	=101	=101
1A]	0r	0r	1c
1G	.	.	1B
=102	=102	=102	=102
1.F	0r	0r	2r
.	.	.	2.A/
.	.	.	4B/
4E\	.	.	4c/
4D\	.	.	4d/
=103	=103	=103	=103
1C	0r	0r	2e/
.	.	.	2f/
1BB	.	.	1g
=104	=104	=104	=104
2r	0r	0r	1.a
2.AA/	.	.	.
4BB/	.	.	.
4C/	.	.	4g/
4D\	.	.	4f/
=105	=105	=105	=105
2E\	0r	0r	2g/
2F\	.	.	2a/
1G	.	.	2d/
.	.	.	2f/
=106	=106	=106	=106
1A	0r	0r	2e/
.	.	.	4d/
.	.	.	4c/
2G\	.	.	2B/
2A\	.	.	[2A/
=107	=107	=107	=107
2D\	0r	0r	2A/]
2F\	.	.	1d
1E	.	.	.
.	.	.	2c#i/
=108	=108	=108	=108
1D	0r	0r	[0d
1r	.	.	.
=109	=109	=109	=109
1F	0r	0r	0d]
2F\	.	.	.
[2G\	.	.	.
=110	=110	=110	=110
2G\]	0r	0r	1r
2E\	.	.	.
2.D\	.	.	1f
4E\	.	.	.
=111	=111	=111	=111
2F\	0r	0r	2f/
4E\	.	.	1g
4D\	.	.	.
1C	.	.	.
.	.	.	4f/
.	.	.	4e/
=112	=112	=112	=112
2BB/	0r	0r	2.d/
1D	.	.	.
.	.	.	4e/
.	.	.	2f/
4C/	.	.	4e/
4BB/	.	.	4d/
=113	=113	=113	=113
1AA	0r	0r	1c
1r	.	.	2B/
.	.	.	[2d/
=114	=114	=114	=114
1D	0r	0r	2d/]
.	.	.	4c/
.	.	.	4B/
2.F\	.	.	2A/
.	.	.	2c/
4E\	.	.	.
=115	=115	=115	=115
2F\	0r	0r	2d/
2G\	.	.	1e
2A\	.	.	.
[2B-i\	.	.	2d/
=116	=116	=116	=116
2B-\]	0r	0r	2f/
4A\	.	.	2g/
4G\	.	.	.
1F	.	.	1a
=117	=117	=117	=117
2E\	0r	0r	2g/
2F\	.	.	2a/
2.D\	.	.	2b-i\
.	.	.	[2a/
4C/	.	.	.
=118	=118	=118	=118
2F\	0r	0r	4a/]
.	.	.	4g/
2A\	.	.	1f
1G	.	.	.
.	.	.	2e/
=119	=119	=119	=119
[0F	0r	0r	0f
=120	=120	=120	=120
0F]	0r	0r	1r
.	.	.	1c
=121	=121	=121	=121
1r	0r	0r	2d/
.	.	.	2f/
1C	.	.	1e
=122	=122	=122	=122
2D\	0r	0r	2d/
2F\	.	.	2.a/
1E	.	.	.
.	.	.	4g/
.	.	.	2e/
=123	=123	=123	=123
2D\	0r	0r	2f/
2.A\	.	.	4e/
.	.	.	4d/
.	.	.	1c
4G\	.	.	.
2E\	.	.	.
=124	=124	=124	=124
2F\	0r	0r	1d
4E\	.	.	.
4D\	.	.	.
1C	.	.	1e
=125	=125	=125	=125
1D	0r	0r	2A/
.	.	.	1a
1E	.	.	.
.	.	.	2g/
=126	=126	=126	=126
2AA/	0r	0r	2a/
2A\	.	.	2f/
2G\	.	.	2e/
[2B-i\	.	.	[2g/
=127	=127	=127	=127
4B-\]	0r	0r	4g/]
4A\	.	.	4f/
4G\	.	.	4e/
4F\	.	.	4d/
2A\	.	.	2f/
[2G\	.	.	[2e/
=128	=128	=128	=128
4G\]	0r	0r	4e/]
4F\	.	.	4A/
2D\	.	.	1d
1E	.	.	.
.	.	.	2c#i/
=129	=129	=129	=129
0Dl	0r	0r	0dl
!!LO:TX:i:Y=40:rj:t=[Osanna ut supra]
=||	=||	=||	=||
*-	*-	*-	*-
!!!RDF**kern: l=long note in original notation
!!!RDF**kern: i=editorial accidental
!!!ENC:	Chris Gage 01-27-2013
!!!END:	2015/03/07/
!!!EED:	Jesse Rodin
!!!EEV:	2015/03/09/
!!!ONB:	Translated from MusicXML and edited on 2015/03/09/ by Craig Sapp
!!muse2ps: T^@{OPR}^u^@{ONM}{. }@{OTL}^C^@{COM}^i2I150v85,85,85,150Q16
